X:1008
T:Ashokan Farewell
R:Air
C:Jay Ungar 1983
O:USA
M:3/4
L:1/8
Q:1/4=80
K:D
Ac|"D"d3 c BA|"D7"F4 EF|"G"G3 F ED|"Bm"B,2 D2-DB,|"D"A,2 D2 F2|A2 d2 f2|"G"f3 g f2|"A7" e4 Ac|
"D"d3 c BA|"D7"F4 EF|"G" G3 F ED|"Bm"B,2 D2-DB,|"D" A,2 D2 F2|A2 d2 f2|"A7"A2 c2 e2|"D"d4 FG|
"D"A3 F D2|d4 A2|"G" B3 c d2|"D" A F3 E2|"Bm" F3 E D2|"G" B,4 G,2|"A7" A,4-A,2|A4 FE|
"D"D2 F2 A2|"C" =c6|"G" B3 c d2|"D" A2 F2 D2|A,2 D2 F2|A2 d2 F2|"A7" E3 D C2|"D" D4|]

